X: 30859
T: Out On The Ocean
R: jig
M: 6/8
K: Gmajor
|:FE|D2 B BAG|B/c/dB ABA|GED G2 A|BcB AGE|
D2 B BAG|BdB A2 B|GED G2 A|BGF G:|
Bd|efe edB|ege edB|ded dBA|d>ed dBA|
G2 A B2 d|ege dBA|GED G2 A|BGF GB/c/d|
e2 e edB|egf edB|d2 d dd/e/f|gfe dBA|
G2 A B2 d|e/f/ge dBA|GED G2 A|BGF G||

